src/images/ico/match-photo.svg

<svg width="24" height="25" viewBox="0 0 24 25" fill="none" xmlns="http://www.w3.org/2000/svg">
<path d="M14.8792 10.6678C16.4362 12.2248 16.4362 14.7492 14.8792 16.3063C13.3222 17.8633 10.7977 17.8633 9.24072 16.3063C7.6837 14.7492 7.6837 12.2248 9.24072 10.6678C10.7977 9.11078 13.3222 9.11078 14.8792 10.6678" stroke="#222D78" stroke-width="1.5" stroke-linecap="round" stroke-linejoin="round"/>
<path fill-rule="evenodd" clip-rule="evenodd" d="M21 9.5V18.5C21 19.605 20.105 20.5 19 20.5H4.99998C3.89498 20.5 2.99998 19.605 2.99998 18.5V9.5C2.99998 8.395 3.89498 7.5 4.99998 7.5H6.99998L8.46198 4.996C8.64098 4.689 8.96998 4.5 9.32598 4.5H14.63C14.981 4.5 15.306 4.684 15.487 4.984L17 7.5H19C20.105 7.5 21 8.395 21 9.5Z" stroke="#222D78" stroke-width="1.5" stroke-linecap="round" stroke-linejoin="round"/>
</svg>

<svg width="24" height="25" viewBox="0 0 24 25" fill="none" xmlns="http://www.w3.org/2000/svg"><path d="M14.88 10.668a3.987 3.987 0 11-5.64 5.638 3.987 3.987 0 015.64-5.638" stroke="#222D78" stroke-width="1.5" stroke-linecap="round" stroke-linejoin="round"/><path clip-rule="evenodd" d="M21 9.5v9a2 2 0 01-2 2H5a2 2 0 01-2-2v-9a2 2 0 012-2h2l1.462-2.504a1 1 0 01.864-.496h5.304c.351 0 .676.184.857.484L17 7.5h2a2 2 0 012 2z" stroke="#222D78" stroke-width="1.5" stroke-linecap="round" stroke-linejoin="round"/></svg>
